X:1
T:Title
%%score 1 2
L:1/8
Q:1/4=80
M:3/4
K:E
V:1 treble nm="Strings 1, Soprano"
V:2 bass nm="Strings 1, Bass"
V:1
 z2 z2 E[EF] | [EG]2 [EB]2 [DA][EG] | [EG]2 [DF]2 [DF][EG] | [FA]2 [Ac]2 [DF][FA] | [EG]4 E[EF] | %5
w: 1.~By~ Thy~|bless ed~ word~ o|bey ing,~ Lord,~ we~|prove~ our~ love~ sin|cere;~ For~ we~|
 [EG]2 [EB]2 [DA][EG] | [EG]2 [EF]2 [Fc][Fc] | [DF]2 [FA]2 [EG][DF] | E4 [GB][GB] | %9
w: hear~ Thee~ gent ly~|say ing,~ "Love~ will~|do~ as~ well~ as~|hear."~ * *|
 [Ge]2 [Bd]2 [EA][EA] | [Ac]2 [GB]2 [GB][GB] | [Ge]2 [Fd]2 [Fd][Ec] | [DB]4 E[EF] | %13
w: ||||
 [EG]2 [EB]2 [DA][EG] | [EG]2 [EF]2 [Fc][Fc] | [DF]2 [FA]2 [EG][DF] | E4 z2 |] %17
w: ||||
V:2
 z2 z2 [E,G,][E,A,] | [E,B,]2 [G,B,]2 [F,B,][E,B,] | [B,,B,]2 [B,,B,]2 [B,,B,][B,,B,] | %3
 [B,,B,]2 [B,,B,]2 [B,,B,][B,,B,] | [E,B,]4 [E,G,][E,A,] | [E,B,]2 [G,B,]2 [F,B,][E,B,] | %6
 [C,C]2 [C,A,]2 [A,,F,][A,,F,] | [B,,B,]2 [B,,B,]2 [B,,B,][B,,A,] | [E,G,]4 [E,E][E,E] | %9
 [E,B,]2 [G,E]2 [A,C][A,C] | [E,E]2 [E,E]2 [E,E][E,E] | [E,B,]2 [F,B,]2 [F,B,][F,^A,] | %12
 [B,,B,]4 [E,G,][E,A,] | [E,B,]2 [G,B,]2 [F,B,][E,B,] | [C,C]2 [C,A,]2 [A,,F,][A,,F,] | %15
 [B,,B,]2 [B,,B,]2 [B,,B,][B,,A,] | [E,G,]4 z2 |] %17

